client/filepreviewer/pdfjs/web/images/toolbarButton-presentationMode.svg

<svg width="16" height="16" viewBox="0 0 16 16" fill="none" xmlns="http://www.w3.org/2000/svg">
<path d="M1.5 3C1.5 2.72421 1.72421 2.5 2 2.5H14C14.2758 2.5 14.5 2.72421 14.5 3V11C14.5 11.2758 14.2758 11.5 14 11.5H2C1.72421 11.5 1.5 11.2758 1.5 11V3ZM2 1C0.895786 1 0 1.89579 0 3V11C0 12.1042 0.895786 13 2 13H2.64979L1.35052 15.2499L2.64949 16L4.38194 13H11.6391L13.3715 16L14.6705 15.2499L13.3712 13H14C15.1042 13 16 12.1042 16 11V3C16 1.89579 15.1042 1 14 1H2ZM5.79501 4.64401V9.35601C5.79501 9.85001 6.32901 10.159 6.75701 9.91401L10.88 7.55801C11.312 7.31201 11.312 6.68901 10.88 6.44201L6.75701 4.08601C6.32801 3.84101 5.79501 4.15001 5.79501 4.64401Z" fill="black"/>
</svg>

<svg xmlns="http://www.w3.org/2000/svg" width="16" height="16" fill="none" viewBox="0 0 16 16"><path fill="#000" d="M1.5 3a.5.5 0 0 1 .5-.5h12a.5.5 0 0 1 .5.5v8a.5.5 0 0 1-.5.5H2a.5.5 0 0 1-.5-.5zM2 1a2 2 0 0 0-2 2v8a2 2 0 0 0 2 2h.65l-1.3 2.25 1.3.75 1.732-3h7.257l1.733 3 1.299-.75-1.3-2.25H14a2 2 0 0 0 2-2V3a2 2 0 0 0-2-2zm3.795 3.644v4.712c0 .494.534.803.962.558l4.123-2.356a.642.642 0 0 0 0-1.116L6.757 4.086a.643.643 0 0 0-.962.558"/></svg>
